lib/assets/images/add.svg

<svg width="16" height="16" viewBox="0 0 16 16" fill="none" xmlns="http://www.w3.org/2000/svg">
<path d="M12.3181 8.75989L9.75699 9.52188C9.50152 9.52189 9.28144 9.34186 9.23082 9.09145L8.83729 1.96709C8.75677 1.56879 8.40669 1.28243 8.00033 1.28246C7.59403 1.2825 7.24404 1.56884 7.16352 1.96708L6.69052 9.09088C6.6399 9.34128 6.41982 9.52131 6.16435 9.5213L3.68214 8.75993C3.12363 8.75991 2.82974 9.42211 3.20445 9.83626L7.3632 14.4328C7.70417 14.8096 8.29601 14.8096 8.63698 14.4328L12.7958 9.83622C13.1705 9.42207 12.8766 8.75987 12.3181 8.75989Z" fill="#3A83F1"/>
</svg>

<svg width="16" height="16" fill="none" xmlns="http://www.w3.org/2000/svg"><path d="M12.318 8.76l-2.561.762a.537.537 0 0 1-.526-.43l-.394-7.125a.854.854 0 0 0-1.673 0L6.69 9.091c-.051.25-.271.43-.527.43L3.682 8.76a.644.644 0 0 0-.478 1.076l4.16 4.597a.859.859 0 0 0 1.273 0l4.159-4.597a.644.644 0 0 0-.478-1.076z" fill="#3A83F1"/></svg>
